cssgg/music-note.svg

<svg
  width="24"
  height="24"
  viewBox="0 0 24 24"
  fill="none"
  xmlns="http://www.w3.org/2000/svg"
>
  <path
    fill-rule="evenodd"
    clip-rule="evenodd"
    d="M12 8.95439L17.6352 7.82736C19.0102 7.55235 20 6.34501 20 4.94274C20 3.08637 18.3017 1.69406 16.4813 2.05813L12.4117 2.87206C11.0094 3.15252 10 4.38376 10 5.8138V13.8895C9.41165 13.5492 8.72857 13.3544 8 13.3544C5.79086 13.3544 4 15.1453 4 17.3544C4 19.5635 5.79086 21.3544 8 21.3544C10.2091 21.3544 12 19.5635 12 17.3544V8.95439ZM16.8736 4.01929L12.8039 4.83322C12.3365 4.92671 12 5.33712 12 5.8138V6.91479L17.2429 5.8662C17.6831 5.77816 18 5.39165 18 4.94274C18 4.34846 17.4563 3.90274 16.8736 4.01929ZM10 17.3544C10 16.2498 9.10457 15.3544 8 15.3544C6.89543 15.3544 6 16.2498 6 17.3544C6 18.459 6.89543 19.3544 8 19.3544C9.10457 19.3544 10 18.459 10 17.3544Z"
    fill="currentColor"
  />
</svg>

<svg viewBox="0 0 24 24" xmlns="http://www.w3.org/2000/svg"><path fill-rule="evenodd" d="M12 8.95l5.63-1.13c1.375-.28 2.36-1.49 2.36-2.89 0-1.86-1.7-3.25-3.52-2.89l-4.07.81c-1.41.28-2.42 1.51-2.42 2.94v8.07c-.59-.35-1.28-.54-2-.54 -2.21 0-4 1.79-4 4 0 2.2 1.79 4 4 4 2.2 0 4-1.8 4-4V8.91Zm4.87-4.94l-4.07.81c-.47.09-.81.5-.81.98v1.1l5.24-1.05c.44-.09.75-.48.75-.93 0-.6-.55-1.04-1.13-.93ZM9.99 17.34c0-1.11-.9-2-2-2 -1.11 0-2 .89-2 2 0 1.1.89 2 2 2 1.1 0 2-.9 2-2Z"/></svg>
